src/test/resources/xmp/xmp2.xmp
<?xml version="1.0" encoding="UTF-8"?>
<x:xmpmeta xmlns:x="adobe:ns:meta/" x:xmptk="XMP toolkit 3.0-28, framework 1.6">
    <rdf:RDF xmlns:rdf="http://www.w3.org/1999/02/22-rdf-syntax-ns#" xmlns:iX="http://ns.adobe.com/iX/1.0/">
        <rdf:Description xmlns:crs="http://ns.adobe.com/camera-raw-settings/1.0/" rdf:about="">
            <crs:Version>3.0</crs:Version>
            <crs:RawFileName>CRW_1101.CRW</crs:RawFileName>
            <crs:WhiteBalance>Custom</crs:WhiteBalance>
            <crs:Temperature>5800</crs:Temperature>
            <crs:Tint>+11</crs:Tint>
            <crs:Exposure>+1.15</crs:Exposure>
            <crs:Shadows>0</crs:Shadows>
            <crs:Brightness>39</crs:Brightness>
            <crs:Contrast>+60</crs:Contrast>
            <crs:Saturation>0</crs:Saturation>
            <crs:Sharpness>25</crs:Sharpness>
            <crs:LuminanceSmoothing>0</crs:LuminanceSmoothing>
            <crs:ColorNoiseReduction>15</crs:ColorNoiseReduction>
            <crs:ChromaticAberrationR>0</crs:ChromaticAberrationR>
            <crs:ChromaticAberrationB>0</crs:ChromaticAberrationB>
            <crs:VignetteAmount>0</crs:VignetteAmount>
            <crs:ShadowTint>0</crs:ShadowTint>
            <crs:RedHue>-1</crs:RedHue>
            <crs:RedSaturation>+24</crs:RedSaturation>
            <crs:GreenHue>-12</crs:GreenHue>
            <crs:GreenSaturation>-18</crs:GreenSaturation>
            <crs:BlueHue>+5</crs:BlueHue>
            <crs:BlueSaturation>-13</crs:BlueSaturation>
            <crs:ToneCurveName>Custom</crs:ToneCurveName>
            <crs:ToneCurve>
                <rdf:Seq>
                    <rdf:li>0, 0</rdf:li>
                    <rdf:li>34, 16</rdf:li>
                    <rdf:li>70, 53</rdf:li>
                    <rdf:li>121, 122</rdf:li>
                    <rdf:li>184, 214</rdf:li>
                    <rdf:li>255, 255</rdf:li>
                </rdf:Seq>
            </crs:ToneCurve>
            <crs:CameraProfile>ACR 2.4</crs:CameraProfile>
            <crs:HasSettings>True</crs:HasSettings>
            <crs:HasCrop>False</crs:HasCrop>
        </rdf:Description>
        <rdf:Description xmlns:exif="http://ns.adobe.com/exif/1.0/" rdf:about="">
            <exif:ExposureTime>1/100</exif:ExposureTime>
            <exif:ShutterSpeedValue>6643856/1000000</exif:ShutterSpeedValue>
            <exif:FNumber>8/1</exif:FNumber>
            <exif:ApertureValue>6/1</exif:ApertureValue>
            <exif:ExposureProgram>2</exif:ExposureProgram>
            <exif:DateTimeOriginal>2004-08-12T06:57:52-07:00</exif:DateTimeOriginal>
            <exif:ExposureBiasValue>0/1</exif:ExposureBiasValue>
            <exif:MaxApertureValue>4/1</exif:MaxApertureValue>
            <exif:MeteringMode>5</exif:MeteringMode>
            <exif:FocalLength>28/1</exif:FocalLength>
            <exif:ISOSpeedRatings>
                <rdf:Seq>
                    <rdf:li>200</rdf:li>
                </rdf:Seq>
            </exif:ISOSpeedRatings>
            <exif:Flash rdf:parseType="Resource">
                <exif:Fired>False</exif:Fired>
            </exif:Flash>
        </rdf:Description>
        <rdf:Description xmlns:aux="http://ns.adobe.com/exif/1.0/aux/" rdf:about="">
            <aux:SerialNumber>0660217086</aux:SerialNumber>
            <aux:Lens>18.0-55.0 mm</aux:Lens>
        </rdf:Description>
        <rdf:Description xmlns:pdf="http://ns.adobe.com/pdf/1.3/" rdf:about="" />
        <rdf:Description xmlns:photoshop="http://ns.adobe.com/photoshop/1.0/" rdf:about="" />
        <rdf:Description xmlns:tiff="http://ns.adobe.com/tiff/1.0/" rdf:about="">
            <tiff:Make>Canon</tiff:Make>
            <tiff:Model>Canon EOS DIGITAL REBEL</tiff:Model>
            <tiff:Orientation>6</tiff:Orientation>
            <tiff:ImageWidth>3072</tiff:ImageWidth>
            <tiff:ImageLength>2048</tiff:ImageLength>
            <tiff:PhotometricInterpretation>2</tiff:PhotometricInterpretation>
            <tiff:XResolution>240/1</tiff:XResolution>
            <tiff:YResolution>240/1</tiff:YResolution>
            <tiff:ResolutionUnit>2</tiff:ResolutionUnit>
            <tiff:BitsPerSample>
                <rdf:Seq>
                    <rdf:li>16</rdf:li>
                    <rdf:li>16</rdf:li>
                    <rdf:li>16</rdf:li>
                </rdf:Seq>
            </tiff:BitsPerSample>
            <tiff:DateTime>2004-08-12T06:57:52-07:00</tiff:DateTime>
        </rdf:Description>
        <rdf:Description xmlns:xap="http://ns.adobe.com/xap/1.0/" rdf:about="">
            <xap:ModifyDate>2004-08-12T06:57:52-07:00</xap:ModifyDate>
            <xap:MetadataDate>2005-03-25T16:27:25-08:00</xap:MetadataDate>
            <xap:Rating>0</xap:Rating>
        </rdf:Description>
        <rdf:Description xmlns:xapRights="http://ns.adobe.com/xap/1.0/rights/" rdf:about="">
            <xapRights:Marked>True</xapRights:Marked>
        </rdf:Description>
        <rdf:Description xmlns:dc="http://purl.org/dc/elements/1.1/" rdf:about="">
            <dc:creator>
                <rdf:Seq>
                    <rdf:li>Bruce Fraser</rdf:li>
                </rdf:Seq>
            </dc:creator>
            <dc:rights>
                <rdf:Alt>
                    <rdf:li xml:lang="x-default">¬©2004 Bruce Fraser. All Rights Reserved</rdf:li>
                </rdf:Alt>
            </dc:rights>
            <dc:subject>
                <rdf:Bag>
                    <rdf:li>Glencoe</rdf:li>
                    <rdf:li>Scotland</rdf:li>
                    <rdf:li>Flowers</rdf:li>
                </rdf:Bag>
            </dc:subject>
            <dc:description>
                <rdf:Alt>
                    <rdf:li xml:lang="x-default">lichen and heather in Glencoe</rdf:li>
                </rdf:Alt>
            </dc:description>
        </rdf:Description>
    </rdf:RDF>
</x:xmpmeta>